X:1
T:Title
%%score { ( 1 2 ) | ( 3 4 ) }
L:1/8
Q:1/4=100
M:6/8
K:C
V:1 bass nm="Grand Piano"
V:2 bass 
V:3 bass 
V:4 bass 
V:1
 z3[K:treble] .G3 | A2 A GFE | G2 G FE[B,D] | B,C[G,DF] E3 | C2 E G2 [EG] | A2 A GFE | %6
 G2 G FE[B,D] | .[G,G]3 z3 | [Ec]2 [Ec] .[_EB]3 | [B,^FB]2 [B,FA] G2 E | A2 A GF[CE] | .[G,G]3 z3 | %12
 [Ec]2 [Ec] .[_EB]3 | [B,^FB]2 [B,FA] G2 E | A2 A GF[CE] | .[G,G]3 z3 |] %16
V:2
 [E,C]2 E[K:treble] z DG | x6 | x6 | .[G,G]3 z3 | x6 | x6 | x6 | B,C[G,DF] [G,CE]3 | x6 | x6 | x6 | %11
 B,C[G,DF] [G,CE]3 | x6 | x6 | x6 | B,C[G,DF] [G,CE]3 |] %16
V:3
 z2 G, [CE]B,[CE] | [F,CF]2 [A,CF] EDC | [E,C]2 [E,B,C] [F,A,C]2 G, | G,,A,,B,, [C,G,C]3 | %4
 [C,A,]3 [E,G,B,]2 [C,C] | [F,CF]2 [F,CE] .[G,B,E]2 [A,C] | [E,C]2 [E,B,C] [F,A,C]2 G, | %7
 G,,A,,B,, C,3 | [A,,A,]2 [A,,G,] z2 A | _E,2 E, [=E,B,E]2 [A,C] | [F,A,C]2 [F,CF] EDG, | %11
 G,,A,,B,, C,3 | [A,,A,]2 [A,,G,] z2 A | _E,2 E, [=E,B,E]2 [A,C] | [F,A,C]2 [F,CF] EDG, | %15
 G,,A,,B,, C,3 |] %16
V:4
 C,6 | z3 .C3 | x6 | x6 | x6 | x6 | x6 | x6 | z3 [B,,^F,]3 | x6 | z3 .[G,C]3 | x6 | z3 [B,,^F,]3 | %13
 x6 | z3 .[G,C]3 | x6 |] %16

